FINK
CUT[DREI WORTE NENN ICH EUCH INHALTSSCHWER]
REG[Europa, Mitteleuropa, Deutschland]
KEY[F0309  08 Eb 4/4]
MEL[-5_  1_1_1_-7-6  -5_.-5-5_0
    -5  -6_-7-71_-3-3  -5__-3_0
    -3  1_111_-7-6  -5#_-5#_-6_0
    -6  -7b_-7b_-6_-5-4  -4_-5_-4_0
    -6  -6_-6-6-6_-2_  -5_.-4-3
    -1-2-3  -4_-5_-6-71_  1__-7__  1__. //] >>
FCT[Jugend - Lied, Moral, religioes]
